X: 10
T: Oj, ty rzeko, oj, ty sina
C: Bolesław Jan Ćwiklicz
%%abc-version 2.0
%%abcx-abcm2ps-target-version 5.9.1 (29 Sep 2008)
%%abc-creator hum2abc beta
%%abcx-conversion-date 2021/10/04 07:38:41
%%abc-edited-by Marcin Jachim
%%abc-edited-by Kamil Watkowski
%%abcx-initial-encoding-date 2021-08-11
%%humdrum-veritas 407144749
%%humdrum-veritas-data 795806748
%%linebreak <none>
%%barnumbers 0
L: 1/8
M: 3/4
N: Derived from pl-kozmzk--mzk-m-137--008_cwiklicz-boleslaw-jan-oj-ty-rzeko-oj-ty-sina.krn
%%staves {1 2}
V: 1 clef=treble
V: 2 clef=bass
K: Eb
[V:1] gde2d2 & [Gc][G=B]c2_BA | 
[V:2] E,F,G,2F,2 & C,C,C,2C,2 | 
[V:1] c=Bc2e2 & GGG2c2 | 
[V:2] E,D, E,F, G,B, & C,C,C,2C,2 | 
[V:1] gfa2gf & ccc2BA | 
[V:2] A,A, G,F,C2 & C,D, E,D, E,F, | 
[V:1] edc2G2 & GGG2G2 | 
[V:2] C=B,G,2F,2 & C,D,E,2D,2 | 
[V:1] gde2d2 & [Gc][G=B]c2_BA ||  
[V:2] E,F, G,^F, G,=F, & C,C,C,2C,2 ||  
[V:1] c=Bc2e2 & GGG2c2 | 
[V:2] E,D, E,F, G,B, & C,C,C,2C,2 | 
[V:1] gfa2gf & ccc2BA | 
[V:2] A,A, G,F,C2 & C,D, E,D, E,F, | 
[V:1] edg2c2 & G=AG2G2 ||  
[V:2] CC=B,2C2 & [C,F,][C,^F,][C,2=F,2][C,2E,2] ||  
[V:1]  [K:C] BdA2B2 & GBA2G2 | 
[V:2]  [K:C] G,G,^F,2=F,2 & [C,D,][C,D,][C,2D,2][C,2D,2] | 
[V:1] (3cBAG2e2 & GFG2c2 |[1 
[V:2] E,F, E,C B,A, & C,C,C,2C,2 | 
[V:1] (3defe2dc & AAc2BA | 
[V:2] G,D, G,^F,G,2 & C,C,C,2D,E, | 
[V:1] BAd2G2 & GG^F2G2 :|][2 
[V:2] G,A, B,A,G,2 & D,[^C,E,][=C,2D,2][B,,2D,2] :|]  
[V:1] (3defg2f2 & AAG2c2 | 
[V:2] F,D,E,2F,2 & C,C,C,2C,2 | 
[V:1] edg2c2 & [Gc][Ac][G2B2][G2c2] |]  
[V:2] G,^F,=F,2E,2 & C,C,C,2C,2 |]  


